X: 20406
T: John Doherty's Highland
R: barndance
M: 4/4
K: Gmixolydian
d_ed^c d=efd|(3cdc AF cFAc|d_ed^c df=eg|^fdcA B<G G_B|
Add^c defd|(3cdc AF cFAc|d_ed^c df=eg|^fdcA B<G G2||
g2 g^f g_bag|fga_b c'afa|g2 g^f g_bag|(3fed cA B<G G^F|
Ggg^f g_bag|fga_b c'afa|d'c'bd' c'age|fd (3cAF Gg^fg||

